X:144
T:Swallow's Tail (Flute)
M:2/2
L:1/8
K:ADor
gf|eA "tkt"A2 eA "tkt"A2|cdef gedB|G2 BG DGBG|(3.B.c.d) ef g2 fg|
eA "tkt"A2 eA "sl"A2|(3.B.c.d) ef gafg|"sl"afge dBGB|Ac (3.B.A.G) A2:|:z
2|
eaag abag|edef gedB|G2 BG DG "tkt"G2|(3.B.c.d) ef g2 fg|
eaag abag|edef g2 fg|af (3.g.f.e) dBGB|Ac (3.B.A.G) A2:|
